public/assets/images/about/icons/08.svg

<svg width="60" height="60" viewBox="0 0 60 60" fill="none" xmlns="http://www.w3.org/2000/svg">
<path d="M14.2781 16.4439L10.8469 19.8752L9.825 18.8533C9.46875 18.4971 8.89687 18.4971 8.54063 18.8533C8.18438 19.2096 8.18438 19.7814 8.54063 20.1377L10.2094 21.8064C10.3781 21.9752 10.6125 22.0689 10.8563 22.0689C11.1 22.0689 11.325 21.9752 11.5031 21.8064L15.5719 17.7283C15.9281 17.3721 15.9281 16.8002 15.5719 16.4439C15.2063 16.0877 14.625 16.0877 14.2781 16.4439Z" fill="#0F62FE"/>
<path d="M18.9377 20.0248H38.2596C38.7658 20.0248 39.1689 19.6217 39.1689 19.1154C39.1689 18.6092 38.7658 18.2061 38.2596 18.2061H18.9377C18.4314 18.2061 18.0283 18.6092 18.0283 19.1154C18.0283 19.6217 18.4408 20.0248 18.9377 20.0248Z" fill="#0F62FE"/>
<path d="M14.2781 26.6998L10.8469 30.1311L9.825 29.1092C9.46875 28.7529 8.89687 28.7529 8.54063 29.1092C8.18438 29.4654 8.18438 30.0373 8.54063 30.3936L10.2094 32.0623C10.3781 32.2311 10.6125 32.3248 10.8563 32.3248C11.1 32.3248 11.325 32.2311 11.5031 32.0623L15.5719 27.9842C15.9281 27.6279 15.9281 27.0561 15.5719 26.6998C15.2063 26.3436 14.625 26.3436 14.2781 26.6998Z" fill="#0F62FE"/>
<path d="M18.9377 30.2816H32.8033C33.3096 30.2816 33.7127 29.8785 33.7127 29.3723C33.7127 28.866 33.3096 28.4629 32.8033 28.4629H18.9377C18.4314 28.4629 18.0283 28.866 18.0283 29.3723C18.0283 29.8785 18.4408 30.2816 18.9377 30.2816Z" fill="#0F62FE"/>
<path d="M14.2781 36.9566L10.8469 40.3879L9.825 39.366C9.46875 39.0098 8.89687 39.0098 8.54063 39.366C8.18438 39.7223 8.18438 40.2941 8.54063 40.6504L10.2094 42.3191C10.3781 42.4879 10.6125 42.5816 10.8563 42.5816C11.1 42.5816 11.325 42.4879 11.5031 42.3191L15.5719 38.241C15.9281 37.8848 15.9281 37.3129 15.5719 36.9566C15.2063 36.6004 14.625 36.6004 14.2781 36.9566Z" fill="#0F62FE"/>
<path d="M18.9377 40.5375H27.3471C27.8533 40.5375 28.2564 40.1344 28.2564 39.6281C28.2564 39.1219 27.8533 38.7188 27.3471 38.7188H18.9377C18.4314 38.7188 18.0283 39.1219 18.0283 39.6281C18.0283 40.1344 18.4408 40.5375 18.9377 40.5375Z" fill="#0F62FE"/>
<path d="M14.2781 47.2125L10.8469 50.6438L9.825 49.6219C9.46875 49.2656 8.89687 49.2656 8.54063 49.6219C8.18438 49.9781 8.18438 50.55 8.54063 50.9062L10.2094 52.575C10.3781 52.7438 10.6125 52.8375 10.8563 52.8375C11.1 52.8375 11.325 52.7438 11.5031 52.575L15.5719 48.4969C15.9281 48.1406 15.9281 47.5688 15.5719 47.2125C15.2063 46.8562 14.625 46.8562 14.2781 47.2125Z" fill="#0F62FE"/>
<path d="M30.0752 48.9746H18.9377C18.4314 48.9746 18.0283 49.3777 18.0283 49.884C18.0283 50.3902 18.4314 50.7934 18.9377 50.7934H30.0752C30.5814 50.7934 30.9846 50.3902 30.9846 49.884C30.9846 49.3777 30.5814 48.9746 30.0752 48.9746Z" fill="#0F62FE"/>
<path d="M57.0751 43.5844L55.8282 43.05C56.0532 41.7844 56.072 40.4813 55.8845 39.2156L57.1407 38.7188C57.6095 38.5312 57.8345 38.0063 57.647 37.5375L56.3345 34.2469C56.2407 34.0219 56.072 33.8438 55.847 33.75C55.622 33.6562 55.3782 33.6562 55.1532 33.7406L53.897 34.2375C53.1657 33.1875 52.2564 32.25 51.2157 31.4906L51.7501 30.2437C51.8438 30.0187 51.8532 29.775 51.7595 29.55C51.6657 29.325 51.497 29.1469 51.272 29.0531L48.0188 27.6562C47.5595 27.4594 47.0251 27.675 46.8282 28.1344L46.2938 29.3813C45.9095 29.3156 45.5251 29.2688 45.1407 29.2406V9.38438C45.1407 7.88438 43.9126 6.65625 42.4126 6.65625H36.5626C36.0188 5.01562 34.4907 3.825 32.672 3.825H28.3688C27.947 1.65 26.0157 0 23.7188 0C21.422 0 19.4907 1.65 19.0688 3.825H14.7657C12.947 3.825 11.4188 5.01562 10.8751 6.65625H5.01572C3.51572 6.65625 2.2876 7.88438 2.2876 9.38438V57.2719C2.2876 58.7719 3.50635 60 5.01572 60H42.4126C43.9126 60 45.1407 58.7812 45.1407 57.2719V52.725C45.422 52.7063 45.7126 52.6781 45.9939 52.6312L46.4907 53.8875C46.6313 54.2437 46.9782 54.4594 47.3345 54.4594C47.447 54.4594 47.5595 54.4406 47.672 54.3937L50.9626 53.0812C51.4314 52.8937 51.6563 52.3688 51.4688 51.9L50.972 50.6437C52.022 49.9125 52.9595 49.0031 53.7188 47.9719L54.9657 48.5063C55.4251 48.7031 55.9595 48.4875 56.1563 48.0281L57.5532 44.775C57.647 44.55 57.6563 44.3063 57.5626 44.0812C57.4688 43.8563 57.3001 43.6781 57.0751 43.5844ZM14.7657 5.64375H19.8845C20.3907 5.64375 20.7938 5.24063 20.7938 4.73438C20.7938 3.12188 22.1063 1.81875 23.7095 1.81875C25.322 1.81875 26.6251 3.13125 26.6251 4.73438C26.6251 5.24063 27.0282 5.64375 27.5345 5.64375H32.6532C33.9188 5.64375 34.9501 6.675 34.9501 7.94063V8.69063H12.4501V7.94063C12.4688 6.675 13.5001 5.64375 14.7657 5.64375ZM42.4126 58.1813H5.01572C4.51885 58.1813 4.10635 57.7687 4.10635 57.2719V9.38438C4.10635 8.8875 4.51885 8.475 5.01572 8.475H10.6501V9.6C10.6501 10.1062 11.0532 10.5094 11.5595 10.5094H35.8782C36.3845 10.5094 36.7876 10.1062 36.7876 9.6V8.475H42.4126C42.9095 8.475 43.322 8.8875 43.322 9.38438V29.2219C43.0313 29.2406 42.7501 29.2688 42.4688 29.3156L41.972 28.0594C41.7845 27.5906 41.2595 27.3656 40.7907 27.5531L37.5001 28.8656C37.2751 28.9594 37.097 29.1281 37.0032 29.3531C36.9095 29.5781 36.9095 29.8219 36.9938 30.0469L37.4907 31.3031C36.4407 32.0344 35.5032 32.9437 34.7439 33.9844L33.497 33.45C33.272 33.3563 33.0282 33.3562 32.8032 33.4406C32.5782 33.5344 32.4001 33.7031 32.3063 33.9281L30.9095 37.1813C30.7126 37.6406 30.9282 38.175 31.3876 38.3719L32.6345 38.9062C32.4095 40.1719 32.3907 41.475 32.5876 42.7406L31.3313 43.2375C31.1063 43.3312 30.9282 43.5 30.8345 43.725C30.7407 43.95 30.7407 44.1938 30.8251 44.4188L32.1376 47.7094C32.3251 48.1781 32.8501 48.4031 33.3188 48.2156L34.5751 47.7188C35.3064 48.7688 36.2157 49.6969 37.2564 50.4656L36.722 51.7125C36.5251 52.1719 36.7407 52.7062 37.2001 52.9031L40.4532 54.3C40.6782 54.3937 40.922 54.4031 41.147 54.3094C41.372 54.2156 41.5501 54.0469 41.6438 53.8219L42.1782 52.575C42.5626 52.6406 42.947 52.6875 43.3407 52.7156V57.2625C43.322 57.7781 42.9095 58.1813 42.4126 58.1813ZM53.972 38.8406C54.3001 40.3219 54.2813 41.8875 53.9063 43.3594C53.7938 43.7906 54.0188 44.2406 54.4314 44.4188L55.5282 44.8875L54.8438 46.4719L53.747 46.0031C53.3345 45.825 52.8657 45.975 52.622 46.35C51.8064 47.6344 50.6813 48.7219 49.3782 49.5094C48.9938 49.7438 48.8345 50.2125 49.0032 50.625L49.4439 51.7313L47.8407 52.3688L47.4001 51.2625C47.2595 50.9156 46.922 50.6906 46.5564 50.6906C46.4907 50.6906 46.4251 50.7 46.3595 50.7094C44.8689 51.0375 43.3126 51.0187 41.8313 50.6437C41.4001 50.5312 40.9501 50.7563 40.772 51.1688L40.3126 52.275L38.7282 51.5906L39.197 50.4938C39.3751 50.0812 39.2251 49.6125 38.8501 49.3688C37.5563 48.5438 36.4688 47.4188 35.6907 46.125C35.4657 45.7406 34.9876 45.5812 34.5751 45.75L33.4688 46.1906L32.8313 44.5875L33.9376 44.1469C34.3501 43.9781 34.5845 43.5375 34.4907 43.1063C34.1626 41.6063 34.1813 40.0781 34.547 38.5781C34.6501 38.1469 34.4345 37.6969 34.022 37.5281L32.9251 37.0594L33.6001 35.475L34.697 35.9437C35.1095 36.1219 35.5876 35.9719 35.822 35.5969C36.6376 34.3125 37.7532 33.225 39.0564 32.4375C39.4407 32.2031 39.6001 31.7344 39.4314 31.3219L38.9907 30.225L40.5938 29.5875L41.0345 30.6844C41.2032 31.0969 41.6438 31.3312 42.0751 31.2375C43.5564 30.9094 45.122 30.9281 46.6032 31.3031C47.0345 31.4156 47.4845 31.1906 47.6626 30.7781L48.1313 29.6812L49.7157 30.3656L49.247 31.4625C49.0688 31.875 49.2188 32.3531 49.5938 32.5875C50.8782 33.4031 51.9751 34.5187 52.7532 35.8219C52.9782 36.2062 53.4563 36.3656 53.8688 36.1969L54.9751 35.7562L55.6126 37.3594L54.5063 37.8C54.1032 37.9688 53.8688 38.4094 53.972 38.8406Z" fill="#0F62FE"/>
<path d="M47.3721 33.6751C45.4221 32.8314 43.2565 32.8033 41.2877 33.5908C37.2096 35.2126 35.2221 39.8533 36.844 43.922C38.0815 47.0345 41.0815 48.9283 44.2409 48.9283C45.2159 48.9283 46.219 48.7501 47.1752 48.3658C51.2534 46.7439 53.2409 42.1033 51.619 38.0345C50.8315 36.0564 49.3221 34.5095 47.3721 33.6751ZM46.5002 46.6783C43.3596 47.9345 39.7784 46.397 38.5315 43.2564C37.2752 40.1158 38.8127 36.5345 41.9534 35.2876C42.694 34.9876 43.4627 34.847 44.2221 34.847C46.6596 34.847 48.9752 36.3095 49.9315 38.7095C51.1784 41.8501 49.6502 45.422 46.5002 46.6783Z" fill="#0F62FE"/>
</svg>

<svg xmlns="http://www.w3.org/2000/svg" width="60" height="60" fill="none" viewBox="0 0 60 60"><path fill="#0f62fe" d="m14.278 16.444-3.431 3.431-1.022-1.022a.905.905 0 0 0-1.284 0 .905.905 0 0 0 0 1.285l1.668 1.668a.93.93 0 0 0 1.294 0l4.069-4.078a.905.905 0 0 0 0-1.284.917.917 0 0 0-1.294 0m4.66 3.581H38.26a.904.904 0 0 0 .909-.91.904.904 0 0 0-.91-.909h-19.32a.91.91 0 0 0 0 1.819M14.278 26.7l-3.431 3.431-1.022-1.022a.905.905 0 0 0-1.284 0 .905.905 0 0 0 0 1.285l1.668 1.668a.93.93 0 0 0 1.294 0l4.069-4.078a.905.905 0 0 0 0-1.284.917.917 0 0 0-1.294 0m4.66 3.582h13.865c.507 0 .91-.404.91-.91a.904.904 0 0 0-.91-.91H18.938a.91.91 0 0 0 0 1.819m-4.66 6.676-3.431 3.43-1.022-1.021a.905.905 0 0 0-1.284 0 .905.905 0 0 0 0 1.284l1.668 1.67a.93.93 0 0 0 1.294 0l4.069-4.079a.905.905 0 0 0 0-1.284.917.917 0 0 0-1.294 0m4.66 3.581h8.41a.905.905 0 0 0 .908-.91.904.904 0 0 0-.909-.91h-8.41a.91.91 0 0 0 0 1.819m-4.659 6.676-3.431 3.43-1.022-1.021a.905.905 0 0 0-1.284 0 .905.905 0 0 0 0 1.284l1.668 1.669a.93.93 0 0 0 1.294 0l4.069-4.078a.905.905 0 0 0 0-1.285.917.917 0 0 0-1.294 0m15.797 1.763H18.938a.904.904 0 0 0-.91.909c0 .506.403.91.91.91h11.137c.506 0 .91-.404.91-.91a.904.904 0 0 0-.91-.91"/><path fill="#0f62fe" d="m57.075 43.584-1.247-.534c.225-1.266.244-2.569.056-3.834l1.257-.497a.905.905 0 0 0 .506-1.181l-1.312-3.291a.9.9 0 0 0-.488-.497.93.93 0 0 0-.694-.01l-1.256.497a11.7 11.7 0 0 0-2.681-2.746l.534-1.247a.905.905 0 0 0-.478-1.19l-3.253-1.398a.91.91 0 0 0-1.19.478l-.535 1.247a12 12 0 0 0-1.153-.14V9.384c0-1.5-1.228-2.728-2.728-2.728h-5.85c-.544-1.64-2.072-2.831-3.891-2.831h-4.303A4.75 4.75 0 0 0 23.719 0a4.75 4.75 0 0 0-4.65 3.825h-4.303c-1.819 0-3.347 1.19-3.89 2.831h-5.86a2.737 2.737 0 0 0-2.728 2.728v47.888A2.73 2.73 0 0 0 5.016 60h37.397a2.73 2.73 0 0 0 2.728-2.728v-4.547c.281-.019.572-.047.853-.094l.497 1.257a.91.91 0 0 0 1.181.506l3.29-1.313a.905.905 0 0 0 .507-1.181l-.497-1.256a11.8 11.8 0 0 0 2.747-2.672l1.247.534a.91.91 0 0 0 1.19-.478l1.397-3.253a.905.905 0 0 0-.478-1.19m-42.31-37.94h5.12a.904.904 0 0 0 .909-.91 2.92 2.92 0 0 1 2.915-2.915 2.92 2.92 0 0 1 2.916 2.915c0 .507.403.91.91.91h5.118A2.3 2.3 0 0 1 34.95 7.94v.75h-22.5v-.75a2.33 2.33 0 0 1 2.316-2.297M42.414 58.18H5.016a.916.916 0 0 1-.91-.91V9.385c0-.497.413-.909.91-.909h5.634V9.6c0 .506.403.91.91.91h24.318c.507 0 .91-.404.91-.91V8.475h5.625c.497 0 .909.412.909.91v19.837c-.29.019-.572.047-.853.094l-.497-1.257a.905.905 0 0 0-1.181-.506l-3.29 1.313a.9.9 0 0 0-.498.487.94.94 0 0 0-.01.694l.498 1.256a11.7 11.7 0 0 0-2.747 2.681l-1.247-.534a.94.94 0 0 0-.694-.01.9.9 0 0 0-.497.488l-1.396 3.253a.91.91 0 0 0 .478 1.19l1.247.535a11.7 11.7 0 0 0-.047 3.835l-1.257.496a.9.9 0 0 0-.497.488.93.93 0 0 0-.009.694l1.313 3.29a.905.905 0 0 0 1.18.507l1.257-.497a11.8 11.8 0 0 0 2.681 2.747l-.534 1.246a.91.91 0 0 0 .478 1.191l3.253 1.397a.905.905 0 0 0 1.19-.478l.535-1.247c.385.066.769.112 1.163.14v4.547a.94.94 0 0 1-.928.92m11.559-19.34a9.8 9.8 0 0 1-.066 4.518.91.91 0 0 0 .525 1.06l1.097.469-.684 1.584-1.097-.469a.91.91 0 0 0-1.125.347 9.95 9.95 0 0 1-3.244 3.16.904.904 0 0 0-.375 1.115l.44 1.106-1.602.638-.44-1.106a.915.915 0 0 0-.845-.572c-.065 0-.13.009-.197.018a9.85 9.85 0 0 1-4.528-.065.91.91 0 0 0-1.059.525l-.46 1.106-1.584-.684.469-1.097a.91.91 0 0 0-.347-1.125 9.94 9.94 0 0 1-3.16-3.244.9.9 0 0 0-1.115-.375l-1.106.44-.638-1.602 1.107-.441a.92.92 0 0 0 .553-1.04 10 10 0 0 1 .056-4.529.9.9 0 0 0-.525-1.05l-1.097-.469.675-1.584 1.097.469a.904.904 0 0 0 1.125-.347 9.9 9.9 0 0 1 3.234-3.16.904.904 0 0 0 .375-1.115l-.44-1.097 1.603-.638.44 1.097a.92.92 0 0 0 1.041.553 9.86 9.86 0 0 1 4.528.066.91.91 0 0 0 1.06-.525l.468-1.097 1.585.685-.469 1.096a.904.904 0 0 0 .347 1.125 9.8 9.8 0 0 1 3.16 3.235.9.9 0 0 0 1.115.375l1.106-.44.638 1.602-1.107.441a.91.91 0 0 0-.534 1.04"/><path fill="#0f62fe" d="M47.372 33.675a7.87 7.87 0 0 0-6.084-.084c-4.078 1.622-6.066 6.262-4.444 10.331 1.237 3.113 4.237 5.006 7.397 5.006a7.9 7.9 0 0 0 2.934-.562c4.078-1.622 6.066-6.263 4.444-10.331a7.88 7.88 0 0 0-4.247-4.36M46.5 46.678c-3.14 1.257-6.722-.281-7.968-3.422-1.257-3.14.28-6.721 3.421-7.968.741-.3 1.51-.441 2.27-.441a6.15 6.15 0 0 1 5.709 3.862 6.14 6.14 0 0 1-3.432 7.97"/></svg>
